assets/icons/producto-hipotecario.svg

<svg width="70" height="70" viewBox="0 0 70 70" fill="none" xmlns="http://www.w3.org/2000/svg">
<path d="M64.2059 44.6V30.7898C64.8547 31.0192 65.549 31.0902 66.2309 30.9967C66.9127 30.9032 67.5622 30.648 68.1254 30.2524C68.6885 29.8568 69.1489 29.3322 69.468 28.7225C69.7872 28.1128 69.956 27.4356 69.9602 26.7475C69.9602 24.3019 70.3774 25.3952 46.6986 1.68765C46.1642 1.15264 45.5295 0.728209 44.831 0.43863C44.1324 0.149051 43.3836 0 42.6274 0C41.8712 0 41.1225 0.149051 40.4239 0.43863C39.7253 0.728209 39.0907 1.15264 38.5563 1.68765C14.9926 25.2801 15.2947 24.2731 15.2947 26.7475C15.3035 27.4332 15.4755 28.107 15.7966 28.713C16.1177 29.3189 16.5786 29.8397 17.1411 30.232C17.7036 30.6243 18.3515 30.877 19.0311 30.969C19.7107 31.061 20.4024 30.9897 21.049 30.761V39.3924C18.8192 39.2486 18.2725 39.3924 12.4176 40.1549V38.8458C12.4176 38.4643 12.266 38.0983 11.9962 37.8286C11.7264 37.5588 11.3605 37.4072 10.979 37.4072H2.34762C1.96609 37.4072 1.60019 37.5588 1.3304 37.8286C1.06062 38.0983 0.909058 38.4643 0.909058 38.8458V63.3014C0.909058 63.6829 1.06062 64.0488 1.3304 64.3186C1.60019 64.5884 1.96609 64.74 2.34762 64.74H10.979C11.3605 64.74 11.7264 64.5884 11.9962 64.3186C12.266 64.0488 12.4176 63.6829 12.4176 63.3014V61.8628C14.7912 61.8628 16.1003 61.7046 17.841 62.5102C39.4194 72.2924 33.8234 72.35 66.8385 55.4756C67.9885 54.8864 68.9068 53.9273 69.4454 52.7527C69.984 51.5781 70.1115 50.2564 69.8075 49.0005C69.5035 47.7446 68.7856 46.6275 67.7695 45.8293C66.7533 45.031 65.4981 44.5981 64.2059 44.6ZM18.6034 25.7261L40.5847 3.73041C41.1339 3.20292 41.8659 2.90834 42.6274 2.90834C43.389 2.90834 44.121 3.20292 44.6702 3.73041C68.6079 27.6825 67.083 25.8987 67.083 26.7475C67.0791 27.029 66.9926 27.3032 66.8343 27.5361C66.6759 27.769 66.4527 27.9502 66.1924 28.0575C65.932 28.1647 65.6459 28.1931 65.3695 28.1392C65.0931 28.0854 64.8386 27.9516 64.6375 27.7544L43.6488 6.78017C43.5151 6.64533 43.356 6.53831 43.1807 6.46528C43.0054 6.39224 42.8173 6.35464 42.6274 6.35464C42.4375 6.35464 42.2495 6.39224 42.0742 6.46528C41.8989 6.53831 41.7398 6.64533 41.6061 6.78017L20.6174 27.7544C20.3401 27.9731 19.992 28.0821 19.6395 28.0607C19.287 28.0393 18.9547 27.889 18.7058 27.6384C18.457 27.3878 18.3091 27.0544 18.2902 26.7018C18.2713 26.3491 18.3828 26.0018 18.6034 25.7261ZM23.9261 28.5169L42.6274 9.81554L61.3288 28.5169V45.3625L45.5046 53.4472C45.5476 52.3198 45.2583 51.2047 44.6725 50.2404C44.0868 49.2761 43.2306 48.5053 42.2103 48.0238C25.5517 40.198 26.1703 40.3563 23.9261 39.7808V28.5169ZM9.54045 61.8628H3.78619V40.2844H9.54045V61.8628ZM65.5294 52.915C40.3545 65.7757 40.5559 66.1785 36.4704 66.1785C34.3656 66.2819 32.266 65.8876 30.3421 65.0277C15.7982 58.4247 18.1718 58.9857 12.4176 58.9857V42.9889C24.257 41.5503 20.2578 40.8885 40.9731 50.6133C41.6656 50.9375 42.2009 51.5237 42.4612 52.2426C42.7215 52.9616 42.6856 53.7545 42.3613 54.447C42.037 55.1395 41.4509 55.6748 40.7319 55.9351C40.013 56.1955 39.22 56.1595 38.5275 55.8352L27.1773 50.4982C26.8387 50.3652 26.4623 50.3654 26.1239 50.4988C25.7855 50.6322 25.5102 50.8888 25.3533 51.217C25.1965 51.5452 25.1699 51.9206 25.2787 52.2677C25.3876 52.6148 25.6239 52.9077 25.9401 53.0876L37.2904 58.4247C38.1869 58.8584 39.1823 59.0469 40.1753 58.9711C41.1684 58.8953 42.1236 58.5578 42.9439 57.9931L62.8824 47.7937C63.2187 47.6199 63.5859 47.514 63.9631 47.4821C64.3403 47.4502 64.7201 47.4929 65.0807 47.6078C65.4414 47.7227 65.7759 47.9075 66.0652 48.1516C66.3544 48.3958 66.5928 48.6946 66.7666 49.0308C66.9404 49.3671 67.0462 49.7343 67.0781 50.1115C67.11 50.4887 67.0673 50.8684 66.9524 51.2291C66.8375 51.5898 66.6527 51.9243 66.4086 52.2136C66.1644 52.5028 65.8657 52.7411 65.5294 52.915Z" fill="#4CAD36"/>
<path d="M35.4346 40.2843C36.2978 40.2843 35.2908 41.018 50.8416 25.4815C51.1125 25.2106 51.2647 24.8432 51.2647 24.4601C51.2647 24.077 51.1125 23.7096 50.8416 23.4387C50.5708 23.1679 50.2034 23.0157 49.8203 23.0157C49.4372 23.0157 49.0698 23.1679 48.7989 23.4387L34.4132 37.8244C34.2104 38.0256 34.072 38.2827 34.0158 38.5628C33.9596 38.843 33.9881 39.1335 34.0977 39.3974C34.2072 39.6613 34.3929 39.8866 34.631 40.0446C34.8691 40.2025 35.1489 40.286 35.4346 40.2843Z" fill="#4CAD36"/>
<path d="M38.3117 30.2144C39.1653 30.2144 39.9997 29.9613 40.7094 29.4871C41.4191 29.0128 41.9723 28.3388 42.2989 27.5502C42.6256 26.7616 42.711 25.8939 42.5445 25.0567C42.378 24.2196 41.967 23.4506 41.3634 22.847C40.7598 22.2435 39.9909 21.8324 39.1537 21.6659C38.3165 21.4994 37.4488 21.5849 36.6602 21.9115C35.8716 22.2382 35.1976 22.7913 34.7234 23.501C34.2492 24.2107 33.9961 25.0451 33.9961 25.8987C33.9961 27.0433 34.4507 28.141 35.2601 28.9504C36.0694 29.7597 37.1672 30.2144 38.3117 30.2144ZM38.3117 24.4601C38.6933 24.4601 39.0592 24.6117 39.329 24.8815C39.5988 25.1513 39.7503 25.5172 39.7503 25.8987C39.7503 26.2802 39.5988 26.6461 39.329 26.9159C39.0592 27.1857 38.6933 27.3373 38.3117 27.3373C37.9302 27.3373 37.5643 27.1857 37.2945 26.9159C37.0247 26.6461 36.8732 26.2802 36.8732 25.8987C36.8732 25.5172 37.0247 25.1513 37.2945 24.8815C37.5643 24.6117 37.9302 24.4601 38.3117 24.4601Z" fill="#4CAD36"/>
<path d="M46.9431 33.0915C46.0896 33.0915 45.2552 33.3446 44.5455 33.8188C43.8358 34.2931 43.2826 34.9671 42.956 35.7557C42.6293 36.5443 42.5438 37.412 42.7104 38.2492C42.8769 39.0863 43.2879 39.8553 43.8915 40.4589C44.495 41.0624 45.264 41.4735 46.1012 41.64C46.9383 41.8065 47.8061 41.721 48.5947 41.3944C49.3833 41.0678 50.0573 40.5146 50.5315 39.8049C51.0057 39.0952 51.2588 38.2608 51.2588 37.4072C51.2588 36.2626 50.8041 35.1649 49.9948 34.3556C49.1854 33.5462 48.0877 33.0915 46.9431 33.0915ZM46.9431 38.8458C46.5616 38.8458 46.1957 38.6942 45.9259 38.4244C45.6561 38.1547 45.5046 37.7887 45.5046 37.4072C45.5046 37.0257 45.6561 36.6598 45.9259 36.39C46.1957 36.1202 46.5616 35.9687 46.9431 35.9687C47.3247 35.9687 47.6906 36.1202 47.9604 36.39C48.2301 36.6598 48.3817 37.0257 48.3817 37.4072C48.3817 37.7887 48.2301 38.1547 47.9604 38.4244C47.6906 38.6942 47.3247 38.8458 46.9431 38.8458Z" fill="#4CAD36"/>
</svg>

<svg version="1.2" xmlns="http://www.w3.org/2000/svg" viewBox="0 0 70 70" width="70" height="70">
	<style>
		.s0 { fill: #0865d8 } 
	</style>
	<path class="s0" d="m64.21 44.6v-13.81q0.98 0.35 2.02 0.21 1.04-0.15 1.9-0.75 0.85-0.6 1.34-1.53 0.48-0.93 0.49-1.97c0-2.45 0.42-1.35-23.26-25.06q-0.81-0.81-1.87-1.25-1.06-0.44-2.2-0.44-1.15 0-2.21 0.44-1.05 0.44-1.86 1.25c-23.57 23.59-23.27 22.58-23.27 25.06q0.02 1.04 0.51 1.96 0.49 0.92 1.34 1.52 0.86 0.6 1.89 0.74 1.03 0.14 2.02-0.21v8.63c-2.23-0.14-2.78 0-8.63 0.76v-1.3c0-0.39-0.15-0.75-0.42-1.02-0.27-0.27-0.64-0.42-1.02-0.42h-8.63c-0.38 0-0.75 0.15-1.02 0.42-0.27 0.27-0.42 0.63-0.42 1.02v24.45c0 0.38 0.15 0.75 0.42 1.02 0.27 0.27 0.64 0.42 1.02 0.42h8.63c0.38 0 0.75-0.15 1.02-0.42 0.27-0.27 0.42-0.64 0.42-1.02v-1.44c2.37 0 3.68-0.16 5.42 0.65 21.58 9.78 15.98 9.84 49-7.03 1.15-0.59 2.07-1.55 2.61-2.73 0.53-1.17 0.66-2.49 0.36-3.75-0.31-1.26-1.02-2.37-2.04-3.17-1.02-0.8-2.27-1.23-3.56-1.23zm-45.61-18.87l21.98-22c0.55-0.53 1.29-0.82 2.05-0.82 0.76 0 1.49 0.29 2.04 0.82 23.94 23.95 22.41 22.17 22.41 23.02q-0.01 0.43-0.25 0.79-0.24 0.35-0.64 0.52-0.4 0.16-0.82 0.08-0.42-0.09-0.73-0.39l-20.99-20.97q-0.2-0.2-0.47-0.31-0.26-0.11-0.55-0.12-0.29 0.01-0.56 0.12-0.26 0.11-0.46 0.31l-20.99 20.97c-0.28 0.22-0.63 0.33-0.98 0.31-0.35-0.02-0.69-0.17-0.93-0.42-0.25-0.25-0.4-0.59-0.42-0.94-0.02-0.35 0.09-0.7 0.31-0.97zm5.33 2.79l18.7-18.7 18.7 18.7v16.84l-15.83 8.09c0.05-1.13-0.24-2.25-0.83-3.21-0.58-0.96-1.44-1.73-2.46-2.22-16.66-7.82-16.04-7.66-18.28-8.24zm-14.39 33.35h-5.75v-21.58h5.75zm55.99-8.95c-25.18 12.86-24.97 13.26-29.06 13.26-2.1 0.11-4.2-0.29-6.13-1.15-14.54-6.6-12.17-6.04-17.92-6.04v-16c11.84-1.43 7.84-2.1 28.55 7.63 0.7 0.32 1.23 0.91 1.49 1.63 0.26 0.72 0.23 1.51-0.1 2.2-0.32 0.69-0.91 1.23-1.63 1.49-0.72 0.26-1.51 0.22-2.2-0.1l-11.35-5.34c-0.34-0.13-0.72-0.13-1.06 0-0.33 0.14-0.61 0.39-0.77 0.72-0.15 0.33-0.18 0.71-0.07 1.05 0.11 0.35 0.34 0.64 0.66 0.82l11.35 5.34c0.9 0.43 1.89 0.62 2.89 0.55 0.99-0.08 1.94-0.42 2.76-0.98l19.94-10.2q0.51-0.26 1.08-0.31 0.57-0.05 1.12 0.12 0.55 0.18 0.99 0.55 0.43 0.37 0.7 0.88 0.26 0.51 0.31 1.08 0.05 0.57-0.13 1.11-0.17 0.55-0.54 0.99-0.37 0.44-0.88 0.7z"/>
	<path class="s0" d="m35.43 40.28c0.87 0-0.14 0.74 15.41-14.8 0.27-0.27 0.42-0.64 0.42-1.02 0-0.38-0.15-0.75-0.42-1.02-0.27-0.27-0.64-0.42-1.02-0.42-0.38 0-0.75 0.15-1.02 0.42l-14.39 14.38q-0.31 0.31-0.39 0.74-0.09 0.43 0.08 0.84 0.17 0.4 0.53 0.64 0.37 0.24 0.8 0.24z"/>
	<path class="s0" d="m38.31 30.21c0.86 0 1.69-0.25 2.4-0.72 0.71-0.48 1.26-1.15 1.59-1.94 0.33-0.79 0.41-1.66 0.24-2.49-0.16-0.84-0.57-1.61-1.18-2.21-0.6-0.61-1.37-1.02-2.21-1.18-0.83-0.17-1.7-0.09-2.49 0.24-0.79 0.33-1.46 0.88-1.94 1.59-0.47 0.71-0.72 1.55-0.72 2.4 0 1.14 0.45 2.24 1.26 3.05 0.81 0.81 1.91 1.26 3.05 1.26zm0-5.75c0.38 0 0.75 0.15 1.02 0.42 0.27 0.27 0.42 0.64 0.42 1.02 0 0.38-0.15 0.75-0.42 1.02-0.27 0.27-0.64 0.42-1.02 0.42-0.38 0-0.75-0.15-1.02-0.42-0.27-0.27-0.42-0.64-0.42-1.02 0-0.38 0.15-0.75 0.42-1.02 0.27-0.27 0.64-0.42 1.02-0.42z"/>
	<path class="s0" d="m46.94 33.09c-0.85 0-1.68 0.25-2.39 0.73-0.71 0.47-1.27 1.15-1.59 1.94-0.33 0.78-0.42 1.65-0.25 2.49 0.17 0.84 0.58 1.61 1.18 2.21 0.6 0.6 1.37 1.01 2.21 1.18 0.84 0.17 1.71 0.08 2.49-0.25 0.79-0.32 1.47-0.88 1.94-1.59 0.48-0.7 0.73-1.54 0.73-2.39 0-1.15-0.46-2.25-1.27-3.05-0.8-0.81-1.9-1.27-3.05-1.27zm0 5.76c-0.38 0-0.74-0.16-1.01-0.43-0.27-0.27-0.43-0.63-0.43-1.01 0-0.38 0.16-0.75 0.43-1.02 0.27-0.27 0.63-0.42 1.01-0.42 0.38 0 0.75 0.15 1.02 0.42 0.27 0.27 0.42 0.64 0.42 1.02 0 0.38-0.15 0.74-0.42 1.01-0.27 0.27-0.64 0.43-1.02 0.43z"/>
</svg>
